images_sukapura_svg/cmd/sc_alignverticalcenter.svg

<svg viewBox="0 0 16 16" xmlns="http://www.w3.org/2000/svg" xmlns:xlink="http://www.w3.org/1999/xlink"><linearGradient id="a" gradientTransform="translate(-25.830508 -3.59322)" gradientUnits="userSpaceOnUse" x1="14" x2="13.79661" y1="22" y2="2.135593"><stop offset="0" stop-color="#0040dd"/><stop offset="1" stop-color="#0a84ff"/></linearGradient><linearGradient id="b" gradientUnits="userSpaceOnUse" x1="7.602538" x2="7.505859" xlink:href="#a" y1="15.644491" y2="10.507812"/><linearGradient id="c" gradientUnits="userSpaceOnUse" x1="7.505859" x2="7.397462" xlink:href="#a" y1="5.5" y2=".555078"/><g fill="#e9e9e9" fill-opacity=".992157"><rect height="1" ry=".47603" width="8" x="1" y="10"/><rect height="1" ry=".47603" width="14" x="1" y="8"/></g><path d="m7.5058594 10.507812-4.0058594 4.00586h3v.99414h2v-.99414h3z" fill="url(#b)" stroke="url(#b)" stroke-linecap="round" stroke-linejoin="round" stroke-width=".999439"/><path d="m6.5.5v.9921875h-3l4.0058594 4.0078125 3.9941406-4.0078125h-3v-.9921875z" fill="url(#c)" stroke="url(#c)" stroke-linecap="round" stroke-linejoin="round" stroke-width=".999439"/><g fill="#69696e"><rect height="1" ry=".47603" width="8" x="1" y="9"/><rect height="1" ry=".47603" width="14" x="1" y="7"/></g></svg>

<?xml version="1.0" encoding="UTF-8" standalone="no"?>
<svg
   xmlns:dc="http://purl.org/dc/elements/1.1/"
   xmlns:cc="http://creativecommons.org/ns#"
   xmlns:rdf="http://www.w3.org/1999/02/22-rdf-syntax-ns#"
   xmlns:svg="http://www.w3.org/2000/svg"
   xmlns="http://www.w3.org/2000/svg"
   xmlns:xlink="http://www.w3.org/1999/xlink"
   xmlns:sodipodi="http://sodipodi.sourceforge.net/DTD/sodipodi-0.dtd"
   xmlns:inkscape="http://www.inkscape.org/namespaces/inkscape"
   viewBox="0 0 16 16"
   version="1.1"
   id="svg20"
   sodipodi:docname="sc_alignverticalcenter.svg"
   inkscape:version="0.92.3 (unknown)">
  <metadata
     id="metadata26">
    <rdf:RDF>
      <cc:Work
         rdf:about="">
        <dc:format>image/svg+xml</dc:format>
        <dc:type
           rdf:resource="http://purl.org/dc/dcmitype/StillImage" />
      </cc:Work>
    </rdf:RDF>
  </metadata>
  <defs
     id="defs24">
    <linearGradient
       gradientTransform="translate(-25.830508,-3.5932203)"
       id="a"
       gradientUnits="userSpaceOnUse"
       x1="14"
       x2="13.79661"
       y1="22"
       y2="2.1355929">
      <stop
         offset="0"
         stop-color="#0040dd"
         id="stop2" />
      <stop
         offset="1"
         stop-color="#0a84ff"
         id="stop4" />
    </linearGradient>
    <linearGradient
       inkscape:collect="always"
       xlink:href="#a"
       id="linearGradient1068"
       gradientUnits="userSpaceOnUse"
       gradientTransform="matrix(-1,0,0,1,-29.010942,26.95119)"
       x1="-31.010942"
       y1="-4.95119"
       x2="-31.010942"
       y2="-16.951191" />
    <linearGradient
       inkscape:collect="always"
       xlink:href="#a"
       id="linearGradient850"
       x1="7.6025376"
       y1="15.644491"
       x2="7.5058594"
       y2="10.507812"
       gradientUnits="userSpaceOnUse" />
    <linearGradient
       inkscape:collect="always"
       xlink:href="#a"
       id="linearGradient858"
       x1="7.6025376"
       y1="15.644491"
       x2="7.5058594"
       y2="10.507812"
       gradientUnits="userSpaceOnUse" />
    <linearGradient
       inkscape:collect="always"
       xlink:href="#a"
       id="linearGradient866"
       x1="7.5058594"
       y1="5.5"
       x2="7.3974624"
       y2="0.55507791"
       gradientUnits="userSpaceOnUse" />
    <linearGradient
       inkscape:collect="always"
       xlink:href="#a"
       id="linearGradient874"
       x1="7.5058594"
       y1="5.5"
       x2="7.3974624"
       y2="0.55507791"
       gradientUnits="userSpaceOnUse" />
  </defs>
  <sodipodi:namedview
     pagecolor="#ffffff"
     bordercolor="#666666"
     borderopacity="1"
     objecttolerance="10"
     gridtolerance="10"
     guidetolerance="10"
     inkscape:pageopacity="0"
     inkscape:pageshadow="2"
     inkscape:window-width="1366"
     inkscape:window-height="706"
     id="namedview22"
     showgrid="false"
     inkscape:zoom="7.375"
     inkscape:cx="-2.1947026"
     inkscape:cy="12.842375"
     inkscape:window-x="0"
     inkscape:window-y="0"
     inkscape:window-maximized="1"
     inkscape:current-layer="svg20" />
  <g
     id="g837"
     transform="translate(0,1)"
     style="fill:#e9e9e9;fill-opacity:0.99215686">
    <rect
       id="rect833"
       y="9"
       x="1"
       width="8"
       ry="0.47602999"
       height="1"
       style="fill:#e9e9e9;fill-opacity:0.99215686" />
    <rect
       id="rect835"
       y="7"
       x="1"
       width="14"
       ry="0.47602999"
       height="1"
       style="fill:#e9e9e9;fill-opacity:0.99215686" />
  </g>
  <g
     fill="#0a84ff"
     stroke="#0a84ff"
     stroke-linecap="round"
     stroke-linejoin="round"
     transform="translate(-4.990511 10.007136)"
     id="g6">
    <path
       style="stroke-width:0.99943942;fill-opacity:1;fill:url(#linearGradient850);stroke:url(#linearGradient858)"
       d="M 7.5058594 10.507812 L 3.5 14.513672 L 6.5 14.513672 L 6.5 15.507812 L 8.5 15.507812 L 8.5 14.513672 L 11.5 14.513672 L 7.5058594 10.507812 z "
       transform="translate(4.990511,-10.007136)"
       id="path2" />
  </g>
  <g
     fill="#0a84ff"
     stroke="#0a84ff"
     stroke-linecap="round"
     stroke-linejoin="round"
     transform="matrix(1 0 0 -1 -4.990511 5.999986)"
     id="g12">
    <path
       style="stroke-width:0.99943942;stroke:url(#linearGradient866);fill-opacity:1;fill:url(#linearGradient874)"
       d="M 6.5 0.5 L 6.5 1.4921875 L 3.5 1.4921875 L 7.5058594 5.5 L 11.5 1.4921875 L 8.5 1.4921875 L 8.5 0.5 L 6.5 0.5 z "
       transform="matrix(1,0,0,-1,4.990511,5.999986)"
       id="path8" />
  </g>
  <g
     fill="#69696e"
     id="g18">
    <rect
       height="1"
       ry=".47603"
       width="8"
       x="1"
       y="9"
       id="rect14" />
    <rect
       height="1"
       ry=".47603"
       width="14"
       x="1"
       y="7"
       id="rect16" />
  </g>
</svg>
